X: 1187
T: An Comhra Donn
R: hornpipe
M: 4/4
K: Dmajor
|:FG|ABAG (3FGA de|fgfe dedA|BcdB AFDF|GEED E2FG|
ABAG FAde|fgfe dedA|BcdB ABAG|F2D2 D2:|
|:fg|ag (3fed gfec|dcde fdAF|GABG FADF|EGgf eAdf|
ag (3fed gfec|dcde fdAF|GA (3BAG (3FGA EG|F2D2 D2:|

